X:1
T:His Mighty Hand
T:His Mighty Hand
T:Albert Simpson Reitz
T:Henry Ostrom, 1915
T:Public Domain Courtesy of the Cyber Hymnal™
T:Public Domain Courtesy of the Cyber Hymnal™
C:Albert Simpson Reitz
Z:Public Domain
Z:Courtesy of the Cyber Hymnal™
%%score ( 1 2 ) ( 3 4 )
L:1/8
Q:1/4=110
M:4/4
K:G
V:1 treble 
V:2 treble 
V:3 bass 
V:4 bass 
V:1
 [B,DG][DGB] | [GBd]2 [GBd]2 [GBd]2 [DGB][CFA] | [B,G]2 [B,G]2 [B,G]2 [B,G][B,G] | %3
w: 1.~I am|saved from sin, I have|peace with- in, And I|
w: 2.~Ma- ny|passed me by, heed- ing|not my cry, But the|
w: 3.~There’s a|pro- mise sure, and it|shall en- dure, “Lo, I|
w: 4.~There is|sweet- er peace, there is|per- fect peace, And my|
 [DFA]2 [^CGA]2 [DFA]2 [DFAd]2 | [GBd]2 [DGB]2 [DGB]2 [B,DG][DGB] | %5
w: walk with Je- sus|day by day; O His|
w: Sav- ior heard and|res- cued me; I was|
w: will be with thee|all the way”; And though|
w: Fa- ther’s Word is|wond- rous dear; There is|
 [GBd]2 [GBd]2 [GBd]2 [Gce][GBd] | [DGB]2 [DFA]2 [B,DG]2 [DGB][DGB] | %7
w: hand so strong, holds me|all day long, And with|
w: lost and blind, Je- sus|was so kind, Lo, He|
w: foes as- sail, I shall|still pre- vail, For I|
w: might- y pow’r, for each|try- ing hour, There is|
 [DFA]2 [DFA]2 [^CGB]2 [EG^c]2 | [DFd]2 D2 !fermata!D2 z2 || %9
w: Him I will not|go a- stray.|
w: touched my eyes and|now I see.|
w: know He helps me|watch and pray.|
w: love that “cast- eth|out all fear!”|
"^Refrain" [Gd]2 [Gd]2 [Ge][Gd][GB][FA] | G2 [EG]2 [DG]4 | [Gd]2 [Gd]2 [Ge][Gd][GB][DG] | %12
w: |||
w: He will hold me with His|might- y hand!|He will hold me with His|
w: |||
w: |||
 [FA]2 [GA]2 [FA]4 | [Gd]2 [Gd]2 [Ge][Gd][GB][FA] | G2 [EG]2 [DG]2 [DA]2 | %15
w: |||
w: might- y hand!|In temp- ta- tion He will|help me stand! For|
w: |||
w: |||
 [DB]2 [Gd]2 [Gd][GB]G[GA] | [GB]2 [FA]2 !fermata!G2 |] %17
w: ||
w: He will hold me with His|might- y hand.|
w: ||
w: ||
V:2
 x2 | x8 | x8 | x8 | x8 | x8 | x8 | x8 | x2 D2 D2 x2 || x8 | G2 x6 | x8 | x8 | x8 | G2 x6 | %15
 x6 G x | x4 G2 |] %17
V:3
 [G,,G,]2 | [G,,G,]2 [G,,G,]2 [G,,G,]2 [G,,G,]D, | [G,,D,]2 [G,,E,]2 [G,,D,]2 [G,,D,][G,,D,] | %3
 [D,,D,]2 [E,,E,]2 [F,,F,]2 [D,,D,]2 | [G,,G,]2 [G,,G,]2 [G,,G,]2 [G,,G,]2 | %5
 [G,,G,]2 [G,,G,]2 [G,,G,]2 [G,,G,]2 | [D,,D,]2 [D,,D,]2 [G,,G,]2 [G,,G,]2 | %7
 [A,,A,]2 [A,,A,]2 [A,,A,]2 [A,,A,]2 | [D,F,A,]2 [D,,D,]2 [D,,D,]2 z2 || %9
 [G,B,]2 [G,B,]2 C[B,D][G,D][D,C] | [E,B,]2 [C,C]2 [G,,B,]4 | [G,B,]2 [G,B,]2 C[B,D][G,D][G,B,] | %12
 [D,D]2 [A,,^C]2 [D,D]4 | [G,B,]2 [G,B,]2 C[B,D][G,D][D,C] | [E,B,]2 [E,C]2 [G,,B,]2 [D,F,]2 | %15
 G,2 [G,B,]2 [G,B,][G,D][B,,D][C,E] | [D,D]2 [D,C]2 !fermata![G,,B,]2 |] %17
V:4
 x2 | x7 D, | x8 | x8 | x8 | x8 | x8 | x8 | x8 || x4 C x3 | x8 | x4 C x3 | x8 | x4 C x3 | x8 | %15
 G,2 x6 | x6 |] %17

